packages/product-components/src/images/networks/dsol.svg

<svg width="32" height="32" viewBox="0 0 32 32" fill="none" xmlns="http://www.w3.org/2000/svg">
<g clip-path="url(#clip0_1473_77)">
<path d="M0 8C0 3.58172 3.58172 0 8 0H24C28.4183 0 32 3.58172 32 8V24C32 28.4183 28.4183 32 24 32H8C3.58172 32 0 28.4183 0 24V8Z" fill="#E75F5F"/>
<path d="M25.2372 20.9353L22.1557 24.3225C22.0888 24.3961 22.0077 24.4548 21.9176 24.4948C21.8276 24.5349 21.7304 24.5556 21.6322 24.5556H7.02443C6.95472 24.5556 6.88654 24.5347 6.82826 24.4955C6.76997 24.4563 6.72412 24.4006 6.69633 24.335C6.66855 24.2695 6.66005 24.1971 6.67187 24.1267C6.68369 24.0563 6.71532 23.991 6.76287 23.9387L9.84669 20.5516C9.9135 20.4782 9.99429 20.4196 10.0841 20.3795C10.1738 20.3395 10.2707 20.3187 10.3686 20.3185H24.9756C25.0453 20.3185 25.1135 20.3394 25.1718 20.3786C25.23 20.4177 25.2759 20.4735 25.3038 20.539C25.3315 20.6046 25.34 20.677 25.3282 20.7474C25.3163 20.8178 25.2847 20.8831 25.2372 20.9353ZM22.1557 14.1145C22.0888 14.0409 22.0077 13.9823 21.9176 13.9422C21.8276 13.9021 21.7304 13.8814 21.6322 13.8815H7.02443C6.95472 13.8815 6.88654 13.9024 6.82826 13.9415C6.76997 13.9807 6.72412 14.0365 6.69633 14.102C6.66855 14.1675 6.66005 14.2399 6.67187 14.3103C6.68369 14.3807 6.71532 14.4461 6.76287 14.4983L9.84669 17.8855C9.9135 17.9589 9.99429 18.0174 10.0841 18.0575C10.1738 18.0976 10.2707 18.1184 10.3686 18.1185H24.9756C25.0453 18.1185 25.1135 18.0976 25.1718 18.0585C25.23 18.0193 25.2759 17.9635 25.3038 17.898C25.3315 17.8325 25.34 17.7601 25.3282 17.6897C25.3163 17.6193 25.2847 17.5539 25.2372 17.5017L22.1557 14.1145ZM7.02443 11.6815H21.6322C21.7304 11.6815 21.8276 11.6609 21.9176 11.6208C22.0077 11.5807 22.0888 11.522 22.1557 11.4484L25.2372 8.06126C25.2847 8.00903 25.3163 7.94369 25.3282 7.87329C25.34 7.80289 25.3315 7.73048 25.3038 7.66496C25.2759 7.59944 25.23 7.54367 25.1718 7.50449C25.1135 7.46532 25.0453 7.44445 24.9756 7.44444H10.3686C10.2707 7.44461 10.1738 7.46538 10.0841 7.50547C9.99429 7.54555 9.9135 7.6041 9.84669 7.67748L6.76367 11.0647C6.71616 11.1168 6.68454 11.1821 6.6727 11.2524C6.66085 11.3228 6.66929 11.3951 6.69697 11.4606C6.72466 11.5261 6.77039 11.5819 6.82855 11.6211C6.88672 11.6603 6.95479 11.6813 7.02443 11.6815Z" fill="#F6F6F6"/>
</g>
<defs>
<clipPath id="clip0_1473_77">
<rect width="32" height="32" fill="white"/>
</clipPath>
</defs>
</svg>

<svg xmlns="http://www.w3.org/2000/svg" width="32" height="32" viewBox="0 0 32 32" fill="none">
    <path fill="#E75F5F" d="M0 8a8 8 0 0 1 8-8h16a8 8 0 0 1 8 8v16a8 8 0 0 1-8 8H8a8 8 0 0 1-8-8z"/>
    <path fill="#F6F6F6" d="m25.237 20.935-3.081 3.388a.7.7 0 0 1-.524.233H7.024a.35.35 0 0 1-.196-.06.375.375 0 0 1-.065-.557l3.084-3.387a.72.72 0 0 1 .522-.233h14.607q.106 0 .196.06a.37.37 0 0 1 .156.368.37.37 0 0 1-.09.188m-3.081-6.82a.7.7 0 0 0-.524-.233H7.024q-.106 0-.196.06a.37.37 0 0 0-.156.368.37.37 0 0 0 .09.188l3.085 3.388a.72.72 0 0 0 .522.233h14.607q.106 0 .196-.06a.37.37 0 0 0 .156-.37.37.37 0 0 0-.09-.187zM7.024 11.68h14.608a.7.7 0 0 0 .524-.233l3.081-3.387a.37.37 0 0 0-.065-.557.35.35 0 0 0-.196-.06H10.369a.7.7 0 0 0-.522.233l-3.083 3.388a.37.37 0 0 0-.067.396.36.36 0 0 0 .132.16c.058.04.126.06.195.06"/>
</svg>
